public/icons/favicon.svg

<svg width="270" height="270" viewBox="0 0 270 270" fill="none" xmlns="http://www.w3.org/2000/svg">
<g clip-path="url(#clip0_39_1300)">
<circle cx="135" cy="135" r="117" fill="#3697F1"/>
<path d="M193.238 -34.8888C195.017 -35.1112 197.352 -35 200.243 -34.5553C203.134 -34.3329 206.136 -33.8881 209.249 -33.221C212.362 -32.5539 215.253 -31.6644 217.921 -30.5525C220.59 -29.6631 222.591 -28.6624 223.925 -27.5505V-21.2129L158.214 29.1546L150.876 23.1505L193.238 -34.8888Z" fill="black" fill-opacity="0.85"/>
<path d="M77.5581 269.651C85.3411 270.985 93.1242 273.765 100.907 277.99V287.663H48.5384L45.5364 284.661L59.8794 218.283L90.9004 73.518L70.5533 70.516V62.177C77.8916 59.0638 85.5635 56.2841 93.5689 53.838C101.797 51.3919 109.469 50.1689 116.585 50.1689L123.256 54.1716L109.58 112.878H110.914C114.917 103.983 119.253 95.7553 123.923 88.1946C128.815 80.634 134.041 74.074 139.6 68.5146C145.159 62.7329 151.164 58.2855 157.612 55.1723C164.061 51.8367 170.955 50.1689 178.293 50.1689C183.185 50.1689 187.855 51.1696 192.303 53.1709C196.75 54.9499 200.641 57.8407 203.977 61.8434C207.313 65.6238 209.87 70.4048 211.649 76.1865C213.65 81.9682 214.651 88.6394 214.651 96.2001C214.651 113.323 212.094 129.667 206.979 145.233C201.865 160.799 194.86 174.475 185.965 186.261C177.292 198.047 167.063 207.498 155.277 214.614C143.492 221.507 130.816 224.954 117.252 224.954C113.471 224.954 110.247 224.843 107.578 224.62C104.91 224.398 102.575 223.953 100.574 223.286C98.5723 222.841 96.571 222.174 94.5696 221.285C92.7906 220.395 90.7893 219.395 88.5655 218.283L77.5581 269.651ZM162.616 70.8496C156.167 70.8496 150.052 73.4069 144.27 78.5214C138.488 83.4136 133.04 89.4177 127.926 96.5336C123.033 103.65 118.586 111.21 114.583 119.216C110.58 126.999 107.356 133.892 104.91 139.896L91.9011 202.939C95.0143 205.608 98.2388 207.609 101.574 208.943C105.132 210.055 110.692 210.611 118.252 210.611C127.147 210.611 135.486 207.387 143.269 200.938C151.275 194.267 158.168 185.816 163.95 175.587C169.954 165.358 174.624 154.017 177.959 141.564C181.517 128.889 183.296 116.436 183.296 104.205C183.296 93.5316 181.406 85.3038 177.626 79.5221C174.068 73.7404 169.065 70.8496 162.616 70.8496Z" fill="black" fill-opacity="0.85"/>
</g>
<defs>
<clipPath id="clip0_39_1300">
<rect width="270" height="270" fill="white"/>
</clipPath>
</defs>
</svg>

<svg xmlns="http://www.w3.org/2000/svg" width="270" height="270" fill="none">
    <g clip-path="url(#a)">
        <circle cx="135" cy="135" r="117" fill="#3697F1"/>
        <path fill="#000" fill-opacity=".8" d="M193.2-34.9a67.9 67.9 0 0 1 24.7 4.3c2.7 1 4.7 2 6 3v6.4l-65.7 50.4-7.3-6 42.3-58ZM77.6 269.7a75.7 75.7 0 0 1 23.3 8.3v9.7H48.5l-3-3L60 218.3 91 73.5l-20.3-3v-8.3c7.3-3.1 15-6 23-8.4a81 81 0 0 1 23-3.6l6.7 4-13.7 58.7h1.3c4-9 8.4-17.1 13-24.7 5-7.6 10.1-14.1 15.7-19.7a63.1 63.1 0 0 1 18-13.3 44 44 0 0 1 20.7-5A33.8 33.8 0 0 1 204 61.8a38 38 0 0 1 7.6 14.4 61 61 0 0 1 3 20 156 156 0 0 1-7.6 49 140 140 0 0 1-21 41 106 106 0 0 1-30.7 28.4 74 74 0 0 1-38 10.4c-3.8 0-7-.2-9.7-.4-2.7-.2-5-.6-7-1.3-2-.5-4-1.1-6-2l-6-3-11 51.4Zm85-198.9c-6.4 0-12.5 2.6-18.3 7.7a99.4 99.4 0 0 0-16.4 18 263.3 263.3 0 0 0-23 43.4l-13 63c3.1 2.7 6.3 4.7 9.7 6 3.5 1.2 9 1.7 16.7 1.7 8.8 0 17.2-3.2 25-9.7 8-6.6 14.9-15 20.6-25.3 6-10.2 10.7-21.6 14-34a137 137 0 0 0 5.4-37.4 45 45 0 0 0-5.7-24.7 16.7 16.7 0 0 0-15-8.7Z"/>
    </g>
    <defs>
        <clipPath id="a">
            <path fill="#fff" d="M0 0h270v270H0z"/>
        </clipPath>
    </defs>
</svg>
